X:88
T:A Fig for a Kiss
M:9/8
L:1/8
R:Slip Jig
K:Em
%%MIDI program 1 64
|:"Em"E2B E2B BAG | "D"F2A D2A "B7"AGF | "Em"G2B E2B BAG | "Bm"BdB "B7"AGF "Em"E3:|!
|"Em"g2e g2e edB | "D"f2d dcd "B7"fed | "Em"g2e g2e edB | "D"dBG GBd "Em"e2f ||!
|"Em"g2e g2e edB | "D"f2d dcd "B7"fed | "Em"gfe "D"fed "C"edB | "G"BdB "D"AGF "Em"E3 |]

